X:609
T: MAEDCHEN WENN ICH DICH ERBLICKE
N: E0566A
O: Europa, Mitteleuropa, Deutschland, Hessen; Westerwald
R: Liebes - Lied
M: 4/4
L: 1/8
K: F
 | F2A2c2dc | B2G2F2C2 |
FFAAc2BA | G4z4 |
F2Bdf2ed | c2fcA2F2 |
GFEGd2cB | A4z4

@@@ Tune index: 4259
